printer-3d-nozzle-heat-outline.svg

<svg fill="currentColor" viewBox="0 0 24 24"><path d="m23 14.5-1.4 2.2 1.4 2.2-2 3.1-1.8-.9 1.5-2.2-1.5-2.2 2-3.1zm-4.3 0-1.5 2.2 1.5 2.2-2 3.1-1.8-.9 1.4-2.2-1.4-2.2 2-3.1zM4 2h10v5h2v6h-2.5L10 17H8l-3.5-4H2V7h2zm0 7v2h1.5L9 15l3.5-4H14V9h-2V4H6v5z"/></svg>

<svg  viewBox="0 0 24 24" fill="currentColor"><path  d="M23 14.5L21.6 16.7L23 18.9L21 22L19.2 21.1L20.7 18.9L19.2 16.7L21.2 13.6L23 14.5M18.7 14.5L17.2 16.7L18.7 18.9L16.7 22L14.9 21.1L16.3 18.9L14.9 16.7L16.9 13.6L18.7 14.5M4 2H14V7H16V13H13.5L10 17H8L4.5 13H2V7H4V2M4 9V11H5.5L9 15L12.5 11H14V9H12V4H6V9H4Z"/></svg>
